X: 1
T: Fairy Queen by Signor Carrollini
B: A COLECTION of the most Celebrated Irish Tunes13
M: 3/4
L: 1/8
K: G
|:\
G2 G2 (ED) | G4 (ED) | G2 G2 (ED) | G2 {B}A2 B2 | G2 G2 (DE) | B,4 (GF) | E4 GF | G3 c (B/c/B/A/) |
G3 B (A/B/A/G/) | F3 B A/B/A/G/ | E3 FED | B,3 cBA | {F}E3 GFE | E2 E2 (GF) | G6 | G,6 :|
|: (GA) |\
TB3 (A/B/) B2 | BA Bc Bc | {B}A4 A2 | A2 B2 d2 | G4 d2 |
F4 (dF) | E3 F (E/F/E/D/) | B,3 DEF | G3 C (B,/C/B,/A,/) | G,3 GFG |
A3 G (F/G/F/E/) | D3 cBG | E3 G (F/G/F/E/) | D2 E2 (GF) G4 D2 | G,6 :|
|: ef |\
g2 g2 d2 | g3 f (e/f/e/d/) | B3 cBA | G4 (ef) | gf ga gf |
ed ef ge | a3 g (f/g/f/e/) | d4 ga | b2 b2 e2 | ba bc' be |
{fg}a3 g (f/g/f/e/) | d4 b2 | ef ef (ga) | d2 e2 (gf) | {f}g6 | G4 :|
|: gf |\
Te4 (ed) | B2 B2 (B/c/B/A/) | G4 (GA) | TF4 (GF) | E2 B,2 ^D2 |
E4 (EF) | (GA) (Bc) (BA) | B4 (Bd) | ef ef (e/f/g/e/) | g2 G2 (fg) |
{fg}a3 g (f/g/f/e/) | d3 bab | e3 agf | d2 e2 (gf) |{f}g6 | G4 :|
|: (Bd) |\
ed ef (e/f/e/d/) | BA Bc (B/c/B/A/) | GA GA (G/B/A/G/) | FE FG (F/G/A/F/) |
ED EF (E/F/E/D/) | ED EB, EF | G2 A2 (BA) | BA Bd Bd | ef ef ef | gf gG fg |
ab ag (f/g/f/e/) | d3 bab | ef ef (ga) | d2 e2 (gf) | {f}g6 | G6 :|
